src/22/actions/kt-start-all.svg

<svg xmlns="http://www.w3.org/2000/svg" viewBox="0 0 22 22">
  <defs id="defs3051">
    <style type="text/css" id="current-color-scheme">
      .ColorScheme-Text {
        color:#5d656b;
      }
      </style>
  </defs>
 <path 
     style="fill:currentColor;fill-opacity:1;stroke:none" 
     d="M 11 3 C 6.568 3 3 6.568 3 11 C 3 15.432 6.568 19 11 19 C 11.339398 19 11.672624 18.975594 12 18.933594 L 12 17.925781 C 11.67354 17.973781 11.340107 18 11 18 C 7.122 18 4 14.878 4 11 C 4 7.122 7.122 4 11 4 C 14.878 4 18 7.122 18 11 C 18 11.6962 17.894565 12.3662 17.707031 13 L 18.740234 13 C 18.903948 12.3603 19 11.6921 19 11 C 19 6.568 15.432 3 11 3 z M 9 8 L 9 14 L 13 11 L 9 8 z M 15 14 L 15 15 L 19 15 L 19 14 L 15 14 z M 14 16 L 14 17 L 19 17 L 19 16 L 14 16 z M 13 18 L 13 19 L 14 19 L 19 19 L 19 18 L 14 18 L 13 18 z "
     class="ColorScheme-Text"
     />
</svg>

<svg xmlns="http://www.w3.org/2000/svg" viewBox="0 0 22 22"><path d="M11 3c-4.432 0-8 3.568-8 8a7.982 7.982 0 0 0 9 7.934v-1.008A6.985 6.985 0 0 1 4 11c0-3.878 3.122-7 7-7s7 3.122 7 7c0 .696-.105 1.366-.293 2h1.033A7.982 7.982 0 0 0 11 3zM9 8v6l4-3-4-3zm6 6v1h4v-1h-4zm-1 2v1h5v-1h-5zm-1 2v1h6v-1h-6z" fill="currentColor" color="#5d656b"/></svg>
